X:1
T:Andante Op. 241, No. 18
T:Andante Op. 241, No. 18
T:Transcribed by Brett Sayles www.GoodFight.net
T:Ferndinando Carulli
C:Ferndinando Carulli
%%score { ( 1 3 ) | ( 2 4 ) }
L:1/8
Q:1/4=88
M:4/4
K:C
V:1 treble-8 nm="Guitar" snm="Guit."
V:3 treble-8 
V:2 tab stafflines=6 strings=E2,A2,D3,G3,B3,E4 nostems 
V:4 tab stafflines=6 strings=E2,A2,D3,G3,B3,E4 nostems 
V:1
 ABcd | [ce]A,[ce]A, [df]A,[df]A, | [ce]A,[ce]A, dcBA | [^GB]E,[GB]E, [Bd]E,[Bd]E, | %4
 [Ac]A,[Ac]A, ABcd | [ce]A,[ce]A, [df]A,[df]A, | [ce]A,[ce]A, fedc | gfed cBA^G | A2 z2 ^dede | %9
 [^GB]E,[GB]E, [Bd]E,[Bd]E, | [Ac]A,[Ac]A, ^dede | [df]A,[ce]A, [Bd]A,[Ac]A, | %12
 [Ac]E,[^GB]E, ^dede | [^GB]E,[GB]E, [Bd]E,[Bd]E, | [Ac]A,[Ac]A, ^dede | D[df]D[ce] D[Bd]^D[Ac] | %16
 [E^GBe]2 z2 ABcd | [ce]A,[ce]A, [df]A,[df]A, | [ce]A,[ce]A, dcBA | [^GB]E,[GB]E, [Bd]E,[Bd]E, | %20
 [Ac]A,[Ac]A, ABcd | [ce]A,[ce]A, [df]A,[df]A, | [ce]A,[ce]A, fedc | gfed cBA^G | %24
 [A,A]2 z2!fine! |] GABG | cGcG dGdG | eGeG fGfG | gGgG fGeG | dGd z GABG | cGcG dGdG | eGeG fGfG | %32
 gGfG eGdG | [Cc]2 z2 ^FGFG | [FB]G[FB]G ^FGFG | [Ec]G[Ec]G ^FGFG | [Df]G[Df]G [Ce]G[Ce]G | %37
 [B,d]G[B,d]G ^FGFG | [FB]G[FB]G ^FGFG | [Ec]G[Ec]G ^FGFG | [Df]G[Df]G [Ce]G[Ce]G | %41
 [B,d]2 z2 GABG | cGcG dGdG | eGeG fGfG | gGgG fGeG | [B,d]G [B,d]2 GABG | [FB]G[FB]G ^FGFG | %47
 [Ec]G[Ec]G ^FGFG | [Df]G[Df]G [Ce]G[Ce]G | [B,d]2 z2!D.C.! || %50
V:2
 !3!A, !2!B, !2!C !2!D | [!2!C!1!E] !5!A,, [!2!C!1!E] !5!A,, [!2!D!1!F] !5!A,, [!2!D!1!F] !5!A,, | %2
 [!2!C!1!E] !5!A,, [!2!C!1!E] !5!A,, !2!D !2!C !2!B, !3!A, | %3
 [!3!^G,!2!B,] !6!E,, [!3!G,!2!B,] !6!E,, [!3!B,!2!D] !6!E,, [!3!B,!2!D] !6!E,, | %4
 [!3!A,!2!C] !5!A,, [!3!A,!2!C] !5!A,, !3!A, !2!B, !2!C !2!D | %5
 [!2!C!1!E] !5!A,, [!2!C!1!E] !5!A,, [!2!D!1!F] !5!A,, [!2!D!1!F] !5!A,, | %6
 [!2!C!1!E] !5!A,, [!2!C!1!E] !5!A,, !1!F !1!E !2!D !2!C | %7
 !1!G !1!F !1!E !2!D !2!C !2!B, !3!A, !3!^G, | !3!A,2 x2 !2!^D !1!E !2!D !1!E | %9
 [!3!^G,!2!B,] !6!E,, [!3!G,!2!B,] !6!E,, [!3!B,!2!D] !6!E,, [!3!B,!2!D] !6!E,, | %10
 [!3!A,!2!C] !5!A,, [!3!A,!2!C] !5!A,, !2!^D !1!E !2!D !1!E | %11
 [!2!D!1!F] !5!A,, [!2!C!1!E] !5!A,, [!3!B,!2!D] !5!A,, [!3!A,!2!C] !5!A,, | %12
 [!3!A,!2!C] !6!E,, [!3!^G,!2!B,] !6!E,, !2!^D !1!E !2!D !1!E | %13
 [!3!^G,!2!B,] !6!E,, [!3!G,!2!B,] !6!E,, [!3!B,!2!D] !6!E,, [!3!B,!2!D] !6!E,, | %14
 [!3!A,!2!C] !5!A,, [!3!A,!2!C] !5!A,, !2!^D !1!E !2!D !1!E | %15
 !4!D, [!2!D!1!F] !4!D, [!2!C!1!E] !4!D, [!3!B,!2!D] !4!^D, [!3!A,!2!C] | %16
 [!4!E,!3!^G,!2!B,!1!E]2 x2 !3!A, !2!B, !2!C !2!D | %17
 [!2!C!1!E] !5!A,, [!2!C!1!E] !5!A,, [!2!D!1!F] !5!A,, [!2!D!1!F] !5!A,, | %18
 [!2!C!1!E] !5!A,, [!2!C!1!E] !5!A,, !2!D !2!C !2!B, !3!A, | %19
 [!3!^G,!2!B,] !6!E,, [!3!G,!2!B,] !6!E,, [!3!B,!2!D] !6!E,, [!3!B,!2!D] !6!E,, | %20
 [!3!A,!2!C] !5!A,, [!3!A,!2!C] !5!A,, !3!A, !2!B, !2!C !2!D | %21
 [!2!C!1!E] !5!A,, [!2!C!1!E] !5!A,, [!2!D!1!F] !5!A,, [!2!D!1!F] !5!A,, | %22
 [!2!C!1!E] !5!A,, [!2!C!1!E] !5!A,, !1!F !1!E !2!D !2!C | %23
 !1!G !1!F !1!E !2!D !2!C !2!B, !3!A, !3!^G, | [!5!A,,!3!A,]2 x2 |] !3!G, !3!A, !2!B, !3!G, | %26
 !2!C !3!G, !2!C !3!G, !2!D !3!G, !2!D !3!G, | !1!E !3!G, !1!E !3!G, !1!F !3!G, !1!F !3!G, | %28
 !1!G !3!G, !1!G !3!G, !1!F !3!G, !1!E !3!G, | !2!D !3!G, !2!D x !3!G, !3!A, !2!B, !3!G, | %30
 !2!C !3!G, !2!C !3!G, !2!D !3!G, !2!D !3!G, | !1!E !3!G, !1!E !3!G, !1!F !3!G, !1!F !3!G, | %32
 !1!G !3!G, !1!F !3!G, !1!E !3!G, !2!D !3!G, | [!5!C,!2!C]2 x2 !4!^F, !3!G, !4!F, !3!G, | %34
 [!4!F,!2!B,] !3!G, [!4!F,!2!B,] !3!G, !4!^F, !3!G, !4!F, !3!G, | %35
 [!4!E,!2!C] !3!G, [!4!E,!2!C] !3!G, !4!^F, !3!G, !4!F, !3!G, | %36
 [!4!D,!1!F] !3!G, [!4!D,!1!F] !3!G, [!5!C,!1!E] !3!G, [!5!C,!1!E] !3!G, | %37
 [!5!B,,!2!D] !3!G, [!5!B,,!2!D] !3!G, !4!^F, !3!G, !4!F, !3!G, | %38
 [!4!F,!2!B,] !3!G, [!4!F,!2!B,] !3!G, !4!^F, !3!G, !4!F, !3!G, | %39
 [!4!E,!2!C] !3!G, [!4!E,!2!C] !3!G, !4!^F, !3!G, !4!F, !3!G, | %40
 [!4!D,!1!F] !3!G, [!4!D,!1!F] !3!G, [!5!C,!1!E] !3!G, [!5!C,!1!E] !3!G, | %41
 [!5!B,,!2!D]2 x2 !3!G, !3!A, !2!B, !3!G, | !2!C !3!G, !2!C !3!G, !2!D !3!G, !2!D !3!G, | %43
 !1!E !3!G, !1!E !3!G, !1!F !3!G, !1!F !3!G, | !1!G !3!G, !1!G !3!G, !1!F !3!G, !1!E !3!G, | %45
 [!5!B,,!2!D] !3!G, [!5!B,,!2!D]2 !3!G, !3!A, !2!B, !3!G, | %46
 [!4!F,!2!B,] !3!G, [!4!F,!2!B,] !3!G, !4!^F, !3!G, !4!F, !3!G, | %47
 [!4!E,!2!C] !3!G, [!4!E,!2!C] !3!G, !4!^F, !3!G, !4!F, !3!G, | %48
 [!4!D,!1!F] !3!G, [!4!D,!1!F] !3!G, [!5!C,!1!E] !3!G, [!5!C,!1!E] !3!G, | [!5!B,,!2!D]2 x2 || %50
V:3
 x4 | z A,2 A,2 A,2 A, | z A,2 A, z4 | z E,2 E,2 E,2 E, | z A,2 A, z4 | z A,2 A,2 A,2 A, | %6
 z A,2 A, z4 | D4 E,4 | A,2 z2 z4 | z E,2 E,2 E,2 E, | z A,2 A, z4 | z A,2 A,2 A,2 A, | %12
 z E,2 E, z4 | z E,2 E,2 E,2 E, | z A,2 A, z4 | D2 D2 D2 ^D2 | x8 | z A,2 A,2 A,2 A, | %18
 z A,2 A, z4 | z E,2 E,2 E,2 E, | z A,2 A, z4 | z A,2 A,2 A,2 A, | z A,2 A, z4 | D4 E,4 | x4 |] %25
 z4 | C2 C2 B,2 B,2 | C2 C2 D2 D2 | E2 E2 D2 C2 | B,2 B, z z4 | C2 C2 B,2 B,2 | C2 C2 D2 D2 | %32
 E2 D2 C2 B,2 | x8 | x8 | x8 | x8 | x8 | x8 | x8 | x8 | x8 | C2 C2 B,2 B,2 | C2 C2 D2 D2 | %44
 E2 E2 D2 C2 | x8 | x8 | x8 | x8 | x4 || %50
V:4
 x4 | x !6!x2 !6!x2 !6!x2 !6!x | x !6!x2 !6!x x4 | x !6!E,,2 !6!E,,2 !6!E,,2 !6!E,, | %4
 x !6!x2 !6!x x4 | x !6!x2 !6!x2 !6!x2 !6!x | x !6!x2 !6!x x4 | !4!D,4 !6!E,,4 | !5!A,,2 x2 x4 | %9
 x !6!E,,2 !6!E,,2 !6!E,,2 !6!E,, | x !6!x2 !6!x x4 | x !6!x2 !6!x2 !6!x2 !6!x | %12
 x !6!E,,2 !6!E,, x4 | x !6!E,,2 !6!E,,2 !6!E,,2 !6!E,, | x !6!x2 !6!x x4 | %15
 !5!x2 !5!x2 !5!x2 !5!x2 | x8 | x !6!x2 !6!x2 !6!x2 !6!x | x !6!x2 !6!x x4 | %19
 x !6!E,,2 !6!E,,2 !6!E,,2 !6!E,, | x !6!x2 !6!x x4 | x !6!x2 !6!x2 !6!x2 !6!x | x !6!x2 !6!x x4 | %23
 !4!D,4 !6!E,,4 | x4 |] x4 | !5!C,2 !5!C,2 !5!B,,2 !5!B,,2 | !5!C,2 !5!C,2 !4!D,2 !4!D,2 | %28
 !4!E,2 !4!E,2 !4!D,2 !5!C,2 | !5!B,,2 !5!B,, x x4 | !5!C,2 !5!C,2 !5!B,,2 !5!B,,2 | %31
 !5!C,2 !5!C,2 !4!D,2 !4!D,2 | !4!E,2 !4!D,2 !5!C,2 !5!B,,2 | x8 | x8 | x8 | x8 | x8 | x8 | x8 | %40
 x8 | x8 | !5!C,2 !5!C,2 !5!B,,2 !5!B,,2 | !5!C,2 !5!C,2 !4!D,2 !4!D,2 | %44
 !4!E,2 !4!E,2 !4!D,2 !5!C,2 | x8 | x8 | x8 | x8 | x4 || %50

